svgs/thin/file-contract.svg

<svg xmlns="http://www.w3.org/2000/svg" viewBox="0 0 384 512"><!-- Font Awesome Pro 6.0.0-alpha2 by @fontawesome - https://fontawesome.com License - https://fontawesome.com/license (Commercial License) --><path d="M72 80H152C156.406 80 160 76.406 160 72S156.406 64 152 64H72C67.594 64 64 67.594 64 72S67.594 80 72 80ZM374.629 150.625L233.371 9.375C227.371 3.371 219.23 0 210.746 0H64C28.652 0 0 28.652 0 64V448C0 483.344 28.652 512 64 512H320C355.348 512 384 483.344 384 448V173.254C384 164.766 380.629 156.629 374.629 150.625ZM224 22.629L361.375 160H248C234.781 160 224 149.234 224 136V22.629ZM368 448C368 474.469 346.469 496 320 496H64C37.531 496 16 474.469 16 448V64C16 37.531 37.531 16 64 16H208V136C208 158.062 225.938 176 248 176H368V448ZM72 144H152C156.406 144 160 140.406 160 136S156.406 128 152 128H72C67.594 128 64 131.594 64 136S67.594 144 72 144ZM209.609 329.625C195.297 329.625 182.078 340.469 174.25 358.625L161.984 386.687L142.531 308.5C139.922 298.094 133.125 294.25 127.641 294.125C121.469 293.375 115.484 297.469 112.562 307.375L90.547 382.219C90.266 383.156 89.938 383.781 90.203 384H64C59.578 384 56 387.594 56 392S59.578 400 64 400H91.062C97.797 400 103.469 394.938 105.891 386.75L127.359 313.781L146.75 391.75C148.797 400.031 154.203 405.531 160.844 406.062C161.156 406.094 161.5 406.125 161.828 406.125C166.531 406.125 172.359 403.406 175.672 395.719L188.937 364.937C198.391 343.062 216.078 340 227.281 358.969L238.937 378.781C246.875 392.25 258.344 400 270.391 400H320C324.422 400 328 396.406 328 392S324.422 384 320 384H270.391C264.156 384 257.719 379.125 252.719 370.656L241.062 350.844C233.125 337.375 221.656 329.625 209.609 329.625Z"/></svg>

<svg xmlns="http://www.w3.org/2000/svg" viewBox="0 0 384 512"><!--! Font Awesome Pro 6.3.0 by @fontawesome - https://fontawesome.com License - https://fontawesome.com/license (Commercial License) Copyright 2023 Fonticons, Inc. --><path d="M72 80h80C156.4 80 160 76.41 160 72S156.4 64 152 64h-80C67.59 64 64 67.59 64 72S67.59 80 72 80zM374.6 150.6l-141.3-141.3C227.4 3.371 219.2 0 210.7 0H64C28.65 0 0 28.65 0 64l.0065 384c0 35.34 28.65 64 64 64H320c35.35 0 64-28.66 64-64V173.3C384 164.8 380.6 156.6 374.6 150.6zM224 22.63L361.4 160H248C234.8 160 224 149.2 224 136V22.63zM368 448c0 26.47-21.53 48-48 48H64c-26.47 0-48-21.53-48-48V64c0-26.47 21.53-48 48-48h144v120c0 22.06 17.94 40 40 40h120V448zM72 144h80C156.4 144 160 140.4 160 136S156.4 128 152 128h-80C67.59 128 64 131.6 64 136S67.59 144 72 144zM209.6 329.6c-14.31 0-27.53 10.84-35.36 29l-12.27 28.06L142.5 308.5c-2.609-10.41-9.406-14.25-14.89-14.38C121.5 293.4 115.5 297.5 112.6 307.4l-22.02 74.84C90.27 383.2 89.94 383.8 90.2 384H64c-4.422 0-8 3.594-8 8S59.58 400 64 400h27.06c6.734 0 12.41-5.062 14.83-13.25l21.47-72.97l19.39 77.97c2.047 8.281 7.453 13.78 14.09 14.31c.3125 .0313 .6562 .0625 .9844 .0625c4.703 0 10.53-2.719 13.84-10.41l13.27-30.78c9.453-21.88 27.14-24.94 38.34-5.969l11.66 19.81C246.9 392.3 258.3 400 270.4 400H320c4.422 0 8-3.594 8-8S324.4 384 320 384h-49.61c-6.234 0-12.67-4.875-17.67-13.34l-11.66-19.81C233.1 337.4 221.7 329.6 209.6 329.6z"/></svg>
